plasma/desktoptheme/Monochrome/icons/notification.svg

<svg id="svg" version="1.1" viewBox="0 0 22 22" xmlns="http://www.w3.org/2000/svg">
 <g id="notification-active" transform="translate(0,-18)">
  <rect y="40" width="22" height="22" style="fill-opacity:.94117647;opacity:.00100002"/>
  <path d="m11 43c-4.418278 0-8 3.581722-8 8s3.581722 8 8 8 8-3.581722 8-8-3.581722-8-8-8z" style="fill:#5294e2"/>
  <path d="m10 47v6h2v-6zm1 7c-0.453152 0-1 0.518427-1 0.980469 0 0.462043 0.546848 1.019531 1 1.019531s1-0.557488 1-1.019531c0-0.462042-0.546848-0.980469-1-0.980469z" style="fill-opacity:.94117647;fill:#ffffff"/>
 </g>
 <path id="expander-bottom" d="m-5 22 2-2 2 2z" style="fill:#aaaaac"/>
 <path id="expander-top" d="m-5 16 2 2 2-2z" style="fill:#aaaaac"/>
 <path id="expander-right" d="m0 17-2 2 2 2z" style="fill:#aaaaac"/>
 <path id="expander-left" d="m-6 17 2 2-2 2z" style="fill:#aaaaac"/>
 <g id="notification-inactive">
  <rect width="22" height="22" style="fill:none;opacity:.00100002"/>
  <g>
   <path d="m11 3a8 8 0 0 0-8 8 8 8 0 0 0 8 8 8 8 0 0 0 8-8 8 8 0 0 0-8-8zm0 2a6 6 0 0 1 6 6 6 6 0 0 1-6 6 6 6 0 0 1-6-6 6 6 0 0 1 6-6zm-1 1v6h2v-6zm1 7c-0.453152 0-1 0.518427-1 0.980469 0 0.462043 0.546848 1.019531 1 1.019531s1-0.557488 1-1.019531c0-0.462042-0.546848-0.980469-1-0.980469z" style="fill:#aaaaac"/>
  </g>
 </g>
 <g id="notification-disabled" transform="translate(0,18)">
  <rect y="-40" width="22" height="22" style="fill-opacity:.94117647;opacity:.00100002"/>
  <path d="m11-37a8 8 0 0 0-8 8 8 8 0 0 0 8 8 8 8 0 0 0 8-8 8 8 0 0 0-8-8zm0 2a6 6 0 0 1 6 6 6 6 0 0 1-6 6 6 6 0 0 1-6-6 6 6 0 0 1 6-6zm-1 1v6h2v-6zm1 7c-0.453152 0-1 0.518427-1 0.980469 0 0.462043 0.546848 1.019531 1 1.019531s1-0.557488 1-1.019531c0-0.462042-0.546848-0.980469-1-0.980469z" style="fill:#ffffff;opacity:.25"/>
 </g>
 <g id="notification-empty" transform="translate(-18,18)">
  <rect x="40" y="-40" width="22" height="22" style="fill-opacity:.94117647;opacity:.00100002"/>
  <path d="m51-37a8 8 0 0 0-8 8 8 8 0 0 0 8 8 8 8 0 0 0 8-8 8 8 0 0 0-8-8zm0 2a6 6 0 0 1 6 6 6 6 0 0 1-6 6 6 6 0 0 1-6-6 6 6 0 0 1 6-6z" style="fill:#aaaaac"/>
 </g>
 <g id="notification-progress-active" transform="translate(-18)">
  <rect x="40" width="22" height="22" style="fill-opacity:.94117647;opacity:.00100002"/>
  <path d="m51 2.9999999c-4.418278 0-8 3.5817221-8 8.0000001s3.581722 8 8 8 8-3.581722 8-8-3.581722-8.0000001-8-8.0000001z" style="fill:#5294e2"/>
 </g>
 <g id="notification-progress-inactive" transform="translate(-18,-18)">
  <rect x="40" y="40" width="22" height="22" style="fill-opacity:.94117647;opacity:.00100002"/>
  <path d="m51 43c-4.418278 0-8 3.581722-8 8s3.581722 8 8 8 8-3.581722 8-8-3.581722-8-8-8z" style="fill:#ffffff;opacity:.25"/>
 </g>
</svg>

<svg xmlns="http://www.w3.org/2000/svg" width="22" height="22" version="1.1">
 <g id="notification-active">
  <rect width="22" height="22" x="0" y="40" style="opacity:0.001"/>
  <path d="m 11,43 c -4.418278,0 -8,3.581722 -8,8 0,4.418278 3.581722,8 8,8 4.418278,0 8,-3.581722 8,-8 0,-4.418278 -3.581722,-8 -8,-8 z" style="fill:#4285f4"/>
  <path d="M 10 47 L 10 53 L 12 53 L 12 47 L 10 47 z M 11 54 C 10.546848 54 10 54.518427 10 54.980469 C 10 55.442512 10.546848 56 11 56 C 11.453152 56 12 55.442512 12 54.980469 C 12 54.518427 11.453152 54 11 54 z" style="fill:#ffffff"/>
 </g>
 <path id="expander-bottom" d="m -18,23 2,-2 2,2 z" style="fill:#aaaaac"/>
 <path id="expander-top" d="m -18,17 2,2 2,-2 z" style="fill:#aaaaac"/>
 <path id="expander-right" d="m -13,18 -2,2 2,2 z" style="fill:#aaaaac"/>
 <path id="expander-left" d="m -19,18 2,2 -2,2 z" style="fill:#aaaaac"/>
 <g id="notification-inactive">
  <rect width="22" height="22" x="0" y="0" style="opacity:0.001"/>
  <g>
   <path d="M 11 3 A 8 8 0 0 0 3 11 A 8 8 0 0 0 11 19 A 8 8 0 0 0 19 11 A 8 8 0 0 0 11 3 z M 11 5 A 6 6 0 0 1 17 11 A 6 6 0 0 1 11 17 A 6 6 0 0 1 5 11 A 6 6 0 0 1 11 5 z M 10 6 L 10 12 L 12 12 L 12 6 L 10 6 z M 11 13 C 10.546848 13 10 13.518427 10 13.980469 C 10 14.442512 10.546848 15 11 15 C 11.453152 15 12 14.442512 12 13.980469 C 12 13.518427 11.453152 13 11 13 z" style="fill:#aaaaac"/>
  </g>
 </g>
 <g id="notification-disabled">
  <rect width="22" height="22" x="0" y="-40" style="opacity:0.001"/>
  <path d="M 11 -37 A 8 8 0 0 0 3 -29 A 8 8 0 0 0 11 -21 A 8 8 0 0 0 19 -29 A 8 8 0 0 0 11 -37 z M 11 -35 A 6 6 0 0 1 17 -29 A 6 6 0 0 1 11 -23 A 6 6 0 0 1 5 -29 A 6 6 0 0 1 11 -35 z M 10 -34 L 10 -28 L 12 -28 L 12 -34 L 10 -34 z M 11 -27 C 10.546848 -27 10 -26.481573 10 -26.019531 C 10 -25.557488 10.546848 -25 11 -25 C 11.453152 -25 12 -25.557488 12 -26.019531 C 12 -26.481573 11.453152 -27 11 -27 z" style="opacity:0.3;fill:#aaaaac"/>
 </g>
 <g id="notification-empty">
  <rect width="22" height="22" x="40" y="-40" style="opacity:0.001"/>
  <path d="m 51,-37 a 8,8 0 0 0 -8,8 8,8 0 0 0 8,8 8,8 0 0 0 8,-8 8,8 0 0 0 -8,-8 z m 0,2 a 6,6 0 0 1 6,6 6,6 0 0 1 -6,6 6,6 0 0 1 -6,-6 6,6 0 0 1 6,-6 z" style="fill:#aaaaac"/>
 </g>
 <g id="notification-progress-active">
  <rect width="22" height="22" x="40" y="0" style="opacity:0.001"/>
  <path d="m 51,2.9999999 c -4.418278,0 -8,3.5817221 -8,8.0000001 0,4.418278 3.581722,8 8,8 4.418278,0 8,-3.581722 8,-8 0,-4.418278 -3.581722,-8.0000001 -8,-8.0000001 z" style="fill:#4285f4"/>
 </g>
 <g id="notification-progress-inactive">
  <rect width="22" height="22" x="40" y="40" style="opacity:0.001"/>
  <path d="m 51,43 c -4.418278,0 -8,3.581722 -8,8 0,4.418278 3.581722,8 8,8 4.418278,0 8,-3.581722 8,-8 0,-4.418278 -3.581722,-8 -8,-8 z" style="opacity:0.3;fill:#aaaaac"/>
 </g>
</svg>
